assets/images/icons/services_pool.svg

<svg width="86" height="74" viewBox="0 0 86 74" fill="none" xmlns="http://www.w3.org/2000/svg">
<path d="M86 19.3818C86 18.4781 85.2675 17.7456 84.3638 17.7456H72.0856V8.37444C72.0966 8.20661 72.2015 6.95236 72.9191 5.77991C73.8819 4.20753 75.4908 3.47545 77.8361 3.53997C79.1121 3.5755 80.7925 3.83074 81.551 4.84494C82.3008 5.84816 81.9329 7.2817 81.9331 7.28147C81.6847 8.15028 82.1879 9.05603 83.0567 9.30426C83.9253 9.55226 84.8313 9.04948 85.0795 8.18067C85.1648 7.88195 85.8656 5.19649 84.2028 2.92686C82.9702 1.24439 80.8586 0.350098 77.927 0.268756C73.3925 0.140666 71.1343 2.34672 70.0406 4.21782C68.9091 6.15413 68.8202 8.07151 68.8139 8.28398C68.8135 8.30034 68.8132 8.31694 68.8132 8.3333V17.7456H46.5711V8.37467C46.5821 8.20661 46.6873 6.95259 47.4051 5.78014C48.3683 4.20753 49.9769 3.47569 52.3228 3.5402C53.5988 3.57573 55.2791 3.83074 56.0376 4.84518C56.7875 5.8484 56.4196 7.28193 56.4198 7.2817C56.1713 8.15052 56.6746 9.05626 57.5434 9.3045C58.4124 9.5525 59.318 9.04972 59.5662 8.1809C59.6515 7.88218 60.3523 5.19673 58.6894 2.9271C57.4567 1.24463 55.3453 0.350332 52.4137 0.268756C47.8749 0.143003 45.6205 2.34672 44.5268 4.21782C43.3948 6.1539 43.3057 8.07151 43.2994 8.28375C43.299 8.30034 43.2987 8.31671 43.2987 8.3333V17.7456H1.63619C0.732545 17.7456 0 18.4781 0 19.3818V47.4223C0.0511894 48.2799 0.765737 48.9599 1.63619 48.9599C4.02175 48.9599 5.12852 49.8357 6.53003 50.9444C8.12415 52.2054 9.93097 53.6347 13.4544 53.6347C16.9778 53.6347 18.7844 52.2054 20.3783 50.9441C21.7796 49.8355 22.8863 48.9599 25.2716 48.9599C27.657 48.9599 28.7637 49.8357 30.1653 50.9444C31.7591 52.2054 33.566 53.6347 37.0891 53.6347C40.6128 53.6347 42.4196 52.2054 44.0135 50.9441C45.4148 49.8355 46.522 48.9599 48.9073 48.9599C51.2929 48.9599 52.3997 49.8357 53.8012 50.9444C55.3953 52.2054 57.2019 53.6347 60.7253 53.6347C64.249 53.6347 66.056 52.2054 67.6501 50.9444C69.0516 49.8355 70.1586 48.9599 72.5447 48.9599C74.9305 48.9599 76.0375 49.8357 77.4394 50.9444C79.0333 52.2054 80.8413 53.5515 84.364 53.6347C85.3074 53.6569 86.0002 52.9022 86.0002 51.9985C86.0002 51.9882 85.9988 51.9787 85.9986 51.9684C85.9991 51.9684 85.9998 51.9681 86.0002 51.9679L86 19.3818ZM43.2985 23.3554V47.3875C42.8282 47.7103 42.3981 48.0497 41.9832 48.3776C40.5817 49.4865 39.4747 50.3621 37.0891 50.3621C34.7038 50.3621 33.5971 49.4863 32.1955 48.3779C30.6017 47.1168 28.7951 45.6873 25.2716 45.6873C21.7485 45.6873 19.9416 47.1166 18.3478 48.3776C16.9465 49.4863 15.8397 50.3621 13.4542 50.3621C11.0686 50.3621 9.96182 49.4863 8.56008 48.3776C7.71347 47.7077 6.80328 46.9925 5.60979 46.468C5.45062 46.3981 5.28583 46.3322 5.11636 46.2695C5.09977 46.2635 5.08317 46.2571 5.06658 46.2511C4.89361 46.1884 4.71573 46.1295 4.53038 46.0758C4.52173 46.0732 4.51261 46.0711 4.50396 46.0687C4.33941 46.0215 4.16878 45.979 3.99394 45.9397C3.94859 45.9294 3.90278 45.9194 3.85673 45.9098C3.6674 45.8701 3.47433 45.8336 3.27238 45.8042V21.018H43.2985V23.3554ZM68.8132 46.3616C67.4975 46.8936 66.524 47.6624 65.6199 48.3776C64.2181 49.4865 63.1111 50.3621 60.7253 50.3621C58.3397 50.3621 57.233 49.4863 55.8315 48.3776C54.2376 47.1166 52.4308 45.6873 48.9073 45.6873C48.0296 45.6873 47.2588 45.7761 46.5711 45.9287V41.8836H68.8132V46.3616ZM68.8132 38.6115H46.5711V31.465H68.8132V38.6115ZM68.8132 23.3554V28.1927H46.5711V23.3554V21.018H68.8132V23.3554ZM79.4693 48.3779C77.8751 47.1168 76.0681 45.6875 72.5444 45.6875C72.3867 45.6875 72.2364 45.6936 72.0854 45.6992V23.3554V21.018H82.7274V23.3554V50.1926C81.3801 49.8869 80.5043 49.1967 79.4693 48.3779Z" fill="#390303" stroke="#390303" stroke-width="0.233741"/>
<path d="M84.3638 60.4131C81.978 60.4131 80.871 59.5373 79.4693 58.4286C77.8751 57.1676 76.0681 55.7383 72.5444 55.7383C69.0206 55.7383 67.2137 57.1676 65.6196 58.4286C64.2179 59.5375 63.1109 60.4131 60.7251 60.4131C58.3395 60.4131 57.2327 59.5373 55.8312 58.4286C54.2373 57.1676 52.4305 55.7383 48.9071 55.7383C45.3837 55.7383 43.5771 57.1676 41.9832 58.4286C40.5817 59.5375 39.4747 60.4131 37.0891 60.4131C34.7038 60.4131 33.5971 59.5373 32.1955 58.4289C30.6017 57.1676 28.7951 55.7383 25.2716 55.7383C21.7485 55.7383 19.9416 57.1676 18.3478 58.4286C16.9465 59.5373 15.8397 60.4131 13.4542 60.4131C11.0686 60.4131 9.96182 59.5373 8.56008 58.4286C6.96643 57.1678 5.15961 55.7383 1.63619 55.7383C0.732545 55.7383 0 56.4708 0 57.3745C0 58.2781 0.732545 59.0107 1.63619 59.0107C4.02175 59.0107 5.12852 59.8865 6.53003 60.9951C8.12415 62.2562 9.93097 63.6855 13.4544 63.6855C16.9778 63.6855 18.7844 62.2562 20.3783 60.9949C21.7796 59.8863 22.8863 59.0107 25.2716 59.0107C27.657 59.0107 28.7637 59.8865 30.1653 60.9951C31.7591 62.2562 33.566 63.6855 37.0891 63.6855C40.6128 63.6855 42.4196 62.2562 44.0135 60.9949C45.4148 59.8863 46.522 59.0107 48.9073 59.0107C51.2929 59.0107 52.3997 59.8865 53.8012 60.9951C55.3953 62.2562 57.2019 63.6855 60.7253 63.6855C64.249 63.6855 66.056 62.2562 67.6501 60.9951C69.0516 59.8863 70.1586 59.0107 72.5447 59.0107C74.9305 59.0107 76.0375 59.8865 77.4394 60.9951C79.0333 62.2562 80.8404 63.6855 84.364 63.6855C85.2677 63.6855 86.0002 62.9529 86.0002 62.0493C86.0002 61.1457 85.2675 60.4131 84.3638 60.4131Z" fill="#390303" stroke="#390303" stroke-width="0.233741"/>
<path d="M84.3638 70.4639C81.978 70.4639 80.871 69.5881 79.4693 68.4794C77.8751 67.2184 76.0681 65.7891 72.5444 65.7891C69.0206 65.7891 67.2137 67.2184 65.6196 68.4794C64.2179 69.5883 63.1109 70.4639 60.7251 70.4639C58.3395 70.4639 57.2327 69.5881 55.8312 68.4794C54.2373 67.2184 52.4305 65.7891 48.9071 65.7891C45.3837 65.7891 43.5771 67.2184 41.9832 68.4794C40.5817 69.5883 39.4747 70.4639 37.0891 70.4639C34.7038 70.4639 33.5971 69.5881 32.1955 68.4797C30.6017 67.2184 28.7951 65.7891 25.2716 65.7891C21.7485 65.7891 19.9416 67.2184 18.3478 68.4794C16.9465 69.5881 15.8397 70.4639 13.4542 70.4639C11.0686 70.4639 9.96182 69.5881 8.56008 68.4794C6.96643 67.2186 5.15961 65.7891 1.63619 65.7891C0.732545 65.7891 0 66.5216 0 67.4253C0 68.3289 0.732545 69.0614 1.63619 69.0614C4.02175 69.0614 5.12852 69.9373 6.53003 71.0459C8.12415 72.3069 9.93097 73.7363 13.4544 73.7363C16.9778 73.7363 18.7844 72.3069 20.3783 71.0457C21.7796 69.937 22.8863 69.0614 25.2716 69.0614C27.657 69.0614 28.7637 69.9373 30.1653 71.0459C31.7591 72.3069 33.566 73.7363 37.0891 73.7363C40.6128 73.7363 42.4196 72.3069 44.0135 71.0457C45.4148 69.937 46.522 69.0614 48.9073 69.0614C51.2929 69.0614 52.3997 69.9373 53.8012 71.0459C55.3953 72.3069 57.2019 73.7363 60.7253 73.7363C64.249 73.7363 66.056 72.3069 67.6501 71.0459C69.0516 69.937 70.1586 69.0614 72.5447 69.0614C74.9305 69.0614 76.0375 69.9373 77.4394 71.0459C79.0333 72.3069 80.8404 73.7363 84.364 73.7363C85.2677 73.7363 86.0002 73.0037 86.0002 72.1001C86.0002 71.1964 85.2675 70.4639 84.3638 70.4639Z" fill="#390303" stroke="#390303" stroke-width="0.233741"/>
</svg>

<svg width="86" height="74" fill="none" xmlns="http://www.w3.org/2000/svg"><path d="M86 19.382c0-.904-.733-1.636-1.636-1.636H72.086V8.374c.01-.167.115-1.422.833-2.594.963-1.572 2.572-2.305 4.917-2.24 1.276.035 2.957.29 3.715 1.305.75 1.003.382 2.437.382 2.436a1.636 1.636 0 1 0 3.146.9c.086-.299.787-2.985-.876-5.254C82.97 1.244 80.859.35 77.927.269c-4.535-.128-6.793 2.078-7.886 3.949-1.132 1.936-1.22 3.854-1.227 4.066V17.746H46.57V8.375c.011-.168.116-1.422.834-2.595.963-1.572 2.572-2.304 4.918-2.24 1.276.036 2.956.29 3.715 1.305.75 1.003.382 2.437.382 2.437a1.636 1.636 0 1 0 3.146.899c.085-.299.786-2.984-.877-5.254C57.457 1.245 55.345.35 52.414.27c-4.54-.126-6.794 2.078-7.887 3.949-1.132 1.936-1.221 3.854-1.228 4.066V17.746H1.636c-.903 0-1.636.732-1.636 1.636v28.04a1.64 1.64 0 0 0 1.636 1.538c2.386 0 3.493.876 4.894 1.984 1.594 1.261 3.401 2.69 6.924 2.69 3.524 0 5.33-1.429 6.924-2.69 1.402-1.108 2.508-1.984 4.894-1.984 2.385 0 3.492.876 4.893 1.984 1.594 1.261 3.401 2.69 6.924 2.69 3.524 0 5.33-1.429 6.925-2.69 1.4-1.108 2.508-1.984 4.893-1.984 2.386 0 3.493.876 4.894 1.984 1.594 1.261 3.4 2.69 6.924 2.69 3.524 0 5.331-1.429 6.925-2.69 1.402-1.108 2.509-1.984 4.895-1.984 2.385 0 3.492.876 4.894 1.984 1.594 1.261 3.402 2.607 6.925 2.69.943.023 1.636-.732 1.636-1.636l-.001-.03H86V19.382Zm-42.702 3.973v24.033c-.47.322-.9.662-1.315.99-1.401 1.108-2.508 1.984-4.894 1.984-2.385 0-3.492-.876-4.893-1.984-1.594-1.261-3.4-2.69-6.924-2.69-3.523 0-5.33 1.429-6.924 2.69-1.401 1.108-2.508 1.984-4.894 1.984-2.385 0-3.492-.876-4.894-1.984-.847-.67-1.757-1.386-2.95-1.91a8.96 8.96 0 0 0-.494-.199l-.05-.018a8.555 8.555 0 0 0-.536-.175l-.026-.007a9.061 9.061 0 0 0-.647-.16 9.495 9.495 0 0 0-.585-.105V21.018h40.026v2.337Zm25.515 23.007c-1.316.532-2.289 1.3-3.193 2.016-1.402 1.108-2.509 1.984-4.895 1.984-2.385 0-3.492-.876-4.894-1.984-1.593-1.261-3.4-2.69-6.924-2.69-.877 0-1.648.088-2.336.24v-4.044h22.242v4.478Zm0-7.75H46.571v-7.147h22.242v7.146Zm0-15.257v4.838H46.571V21.018h22.242v2.337ZM79.47 48.378c-1.594-1.261-3.4-2.69-6.925-2.69-.157 0-.308.006-.459.011V21.018h10.642v29.175c-1.347-.306-2.223-.996-3.258-1.815ZM84.364 60.413c-2.386 0-3.493-.876-4.895-1.984-1.594-1.261-3.4-2.69-6.925-2.69-3.523 0-5.33 1.429-6.924 2.69-1.402 1.108-2.51 1.984-4.895 1.984-2.386 0-3.492-.876-4.894-1.984-1.594-1.261-3.4-2.69-6.924-2.69-3.523 0-5.33 1.429-6.924 2.69-1.401 1.108-2.508 1.984-4.894 1.984-2.385 0-3.492-.876-4.893-1.984-1.594-1.261-3.4-2.69-6.924-2.69-3.523 0-5.33 1.429-6.924 2.69-1.401 1.108-2.508 1.984-4.894 1.984-2.385 0-3.492-.876-4.894-1.984-1.594-1.261-3.4-2.69-6.924-2.69a1.636 1.636 0 1 0 0 3.272c2.386 0 3.493.875 4.894 1.984 1.594 1.261 3.401 2.69 6.924 2.69 3.524 0 5.33-1.429 6.924-2.69 1.402-1.109 2.508-1.984 4.894-1.984 2.385 0 3.492.875 4.893 1.984 1.594 1.261 3.401 2.69 6.924 2.69 3.524 0 5.33-1.429 6.925-2.69 1.4-1.109 2.508-1.984 4.893-1.984 2.386 0 3.493.875 4.894 1.984 1.594 1.261 3.4 2.69 6.924 2.69 3.524 0 5.331-1.429 6.925-2.69 1.402-1.109 2.509-1.984 4.895-1.984 2.385 0 3.492.875 4.894 1.984 1.594 1.261 3.401 2.69 6.925 2.69a1.636 1.636 0 1 0 0-3.272ZM84.364 70.464c-2.386 0-3.493-.876-4.895-1.985-1.594-1.26-3.4-2.69-6.925-2.69-3.523 0-5.33 1.43-6.924 2.69-1.402 1.11-2.51 1.985-4.895 1.985-2.386 0-3.492-.876-4.894-1.985-1.594-1.26-3.4-2.69-6.924-2.69-3.523 0-5.33 1.43-6.924 2.69-1.401 1.11-2.508 1.985-4.894 1.985-2.385 0-3.492-.876-4.893-1.984-1.594-1.262-3.4-2.69-6.924-2.69-3.523 0-5.33 1.428-6.924 2.69-1.401 1.108-2.508 1.984-4.894 1.984-2.385 0-3.492-.876-4.894-1.985-1.594-1.26-3.4-2.69-6.924-2.69a1.636 1.636 0 1 0 0 3.272c2.386 0 3.493.876 4.894 1.985 1.594 1.26 3.401 2.69 6.924 2.69 3.524 0 5.33-1.43 6.924-2.69 1.402-1.109 2.508-1.985 4.894-1.985 2.385 0 3.492.876 4.893 1.985 1.594 1.26 3.401 2.69 6.924 2.69 3.524 0 5.33-1.43 6.925-2.69 1.4-1.109 2.508-1.985 4.893-1.985 2.386 0 3.493.876 4.894 1.985 1.594 1.26 3.4 2.69 6.924 2.69 3.524 0 5.331-1.43 6.925-2.69 1.402-1.109 2.509-1.985 4.895-1.985 2.385 0 3.492.876 4.894 1.985 1.594 1.26 3.401 2.69 6.925 2.69a1.636 1.636 0 1 0 0-3.272Z" fill="#390303" stroke="#390303" stroke-width=".234"/></svg>
